X:1
T:Gradus ad Parnassum
T:Exercitii III
T:Johann Joseph Fux
%%score [ 1 2 3 4 ]
L:1/8
Q:1/2=80
M:2/2
K:C
V:1 alto1 nm="Piano,  "
V:2 alto nm="Piano,  "
V:3 tenor nm="Piano,  "
V:4 bass nm="Piano"
V:1
"^92" F8 | A8 | c8 | B8 | B8 | d8 | c8 | e8 | d8 | ^c8 | d8 |][M:2/2][K:alto]"^93" D8 | F8 | E8 | %14
 D8 | G8 | F8 | A8 | G8 | F8 | E8 | D8 |][M:2/2]"^94" F8 | D8 | C8 | D8 | D8 | F8 | E8 | E8 | D8 | %31
 ^C8 | D8 |][M:2/2][K:alto1]"^95" A8 | A8 | ^c8 | d8 | _B8 | A8 | A8 | B8 | d8 | ^c8 | d8 |] %44
[M:2/2][K:alto]"^96" E8 | C8 | D8 | C8 | A,8 | A8 | G8 | E8 | F8 | E8 |][M:2/2][K:alto1]"^97" ^G8 | %55
 A8 | F8 | E8 | E8 | F8 | c8 | c8 | A8 | ^G8 |][M:2/2]"^98" B8 | A8 | A8 | c8 | c8 | c8 | e8 | e8 | %72
 d8 | B8 |][M:2/2]"^99" A8 | G8 | F8 | A8 | _B8 | _B8 | A8 | A8 | F8 | F8 | E8 | F8 |] %86
[M:2/2]"^100" F8 | G8 | A8 | F8 | D8 | E8 | F8 | c8 | A8 | F8 | G8 | F8 |] %98
[M:2/2][K:alto1]"^101" A8 | G8 | F8 | F8 | F8 | G8 | F8 | E8 | F8 | F8 | E8 | F8 |] %110
[M:2/2][K:alto1]"^102" c8 | B8 | c8 | A8 | A8 | c8 | c8 | c8 | c8 | A8 | _B8 | A8 |] %122
[M:2/2][K:alto]"^103" D8 | F8 | E8 | D8 | G8 | F8 | A8 | G8 | F8 | E8 | D8 |] %133
[M:2/2][K:alto1]"^104" z4 F4 | A4 B4 | c4 G4 | B4 d4 | e4 B4 | d4 f4 | e4 c4 | e4 c4 | A4 d4 | %142
 ^c8 | d8 |][M:2/2]"^105" d8 | d8 | c8 | d8 | e8 | f8 | f8 | e8 | d8 | ^c8 | d8 |] %155
[M:2/2]"^106" F8 | A8 | c8 | d8 | _B8 | A8 | A8 | B8 | d8 | ^c8 | d8 |][M:2/2]"^107" D2 E2 F2 G2 | %167
 A2 F2 A2 B2 | c2 e2 d2 c2 | B2 G2 B2 d2 | e2 d2 B2 ^c2 | d2 f2 e2 d2 | c2 A2 c2 d2 | e2 d2 c2 B2 | %174
 A2 B2 c2 d2 | ^c2 A2 B2 c2 | d8 |][M:2/2]"^108" F8 | A8 | G8 | A8 | G8 | A8 | c8 | B8 | d8 | ^c8 | %187
 d8 |][M:2/2]"^109" F8 | d8 | G8 | B8 | B8 | d8 | c8 | e8 | d8 | ^c8 | d8 |][M:2/2]"^110" A8 | A8 | %201
 c8 | B8 | B8 | d8 | c8 | e8 | d8 | ^c8 | d8 |][M:2/2]"^111" B2 E2 B2 c2 | A2 c2 A2 G2 | %212
 F2 D2 E2 F2 | G2 E2 F2 G2 | A2 F2 A2 B2 | c2 A2 c2 d2 | e2 B2 e2 d2 | c2 e2 c2 B2 | A2 d2 A2 B2 | %219
 ^G8 |][M:2/2][K:treble]"^112" e8 | c8 | d8 | c8 | A8 | a8 | g8 | e8 | f8 | e8 |] %230
[M:2/2][K:alto1]"^113" B8 | A8 | A8 | c8 | c8 | c8 | e8 | A8 | A8 | ^G8 |] %240
[M:2/2][K:treble]"^114" B8 | e8 | f8 | e8 | f8 | f8 | e8 | e8 | A8 | ^G8 |] %250
[M:2/2][K:alto1]"^115" z4 A4- | A4 d4- | d4 c4- | c4 B4- | B4 d4- | d4 A4- | A4 f4- | f4 e4- | %258
 e4 d4- | d4 ^c4 | d8 |][M:2/2]"^116" A8 | A8 | G8 | d8 | d8 | f8 | c8 | _B8 | A8 | G8 | ^F8 |] %272
[M:2/2][K:alto]"^117" D8 | F8 | E8 | D8 | G8 | F8 | A8 | G8 | F8 | E8 | D8 |] %283
[M:2/2][K:alto1]"^118" A8 | A8 | c4 B4 | d8 | B4 c4 | A8 | d8 | c8 | A8 | A8 | A8 |] %294
[M:2/2]"^119" z4 A4- | A2 F2 A2 B2 | c2 G2 c4- | c4 B4- | B4 ^c4 | d2 A2 d4- | d2 c2 f4- | f4 e4- | %302
 e2 A2 d4- | d4 ^c4 | d8 |][M:2/2][K:alto]"^120" D8 | F8 | E8 | D8 | G8 | F8 | A8 | G8 | F8 | E8 | %315
 D8 |][M:2/2][K:alto1]"^121" d8 | d8 | e8 | A8 | _B8 | A8 | A8 | _B8 | A8 | G8 | ^F8 |] %327
[M:2/2]"^122" A8 | A8 | A8 | B8- | B4 ^c4 | d8 | c8 | c8 | A8 | A8 | A8 |][M:2/2]"^123" A4 d4 | %339
 c4 A4 | B4 c4 | d4 D4 | _B4 G4 | A4 F4 | c4 A4 | _B4 G4 | A4 F4 | G4 E4 | ^F8 |] %349
V:2
 D8 | F8 | E8 | D8 | G8 | F8 | A8 | G8 | F8 | E8 | D8 |][M:2/2][K:tenor] A,8 | A,8 | C8 | B,8 | %15
 B,8 | D8 | C8 | E8 | D8 | ^C8 | D8 |][M:2/2] A,8 | A,8 | A,8 | F,8 | _B,8 | A,8 | C8 | C8 | A,8 | %31
 A,8 | A,8 |][M:2/2][K:alto] F8 | F8 | G8 | F8 | D8 | F8 | E8 | G8 | A8 | G8 | ^F8 |] %44
[M:2/2][K:tenor] B,8 | A,8 | A,8 | A,8 | C8 | C8 | E8 | C8 | D8 | B,8 |][M:2/2][K:alto] E8 | C8 | %56
 D8 | C8 | A,8 | A8 | G8 | E8 | F8 | E8 |][M:2/2][K:alto1] ^G8 | A8 | F8 | G8 | A8 | F8 | c8 | c8 | %72
 A8 | ^G8 |][M:2/2] F8 | G8 | A8 | F8 | D8 | E8 | F8 | c8 | A8 | F8 | G8 | F8 |] %86
[M:2/2][K:alto] C8 | C8 | C8 | C8 | _B,8 | _B,8 | A,8 | A8 | F8 | F8 | E8 | F8 |][M:2/2] C8 | C8 | %100
 C8 | D8 | D8 | _B,8 | A,8 | A,8 | F,8 | A,8 | C8 | A,8 |][M:2/2][K:alto1] A8 | G8 | E8 | F8 | F8 | %115
 G8 | A8 | G8 | F8 | F8 | E8 | F8 |][M:2/2][K:tenor] A,8 | D8 | G,8 | G,8 | B,8 | D8 | C8 | E8 | %130
 D8 | ^C8 | D8 |][M:2/2][K:alto] D8 | F8 | E8 | D8 | G8 | F8 | A8 | G8 | F8 | E8 | D8 |] %144
[M:2/2][K:alto1] A8 | A8 | A8 | B8 | B8 | d8 | c8 | c8 | A8 | A8 | A8 |][M:2/2][K:alto] z4 D4 | %156
 C4 D4 | E4 G4 | F4 E4 | D4 E4 | F4 A4 | E4 F4 | G4 D4 | F4 A4 | G4 E4 | ^F8 |][M:2/2] D8 | F8 | %168
 E8 | D8 | G8 | F8 | A8 | G8 | F8 | E8 | D8 |][M:2/2] D2 F2 E2 D2 | C2 A,2 C2 D2 | E2 F2 G2 E2 | %180
 F2 G2 A2 F2 | D2 _B,2 D2 E2 | F2 A2 G2 F2 | E2 C2 E2 F2 | G2 F2 D2 E2 | F2 D2 E2 F2 | %186
 G2 F2 E2 G2 | ^F8 |][M:2/2] D8 | F8 | E8 | D8 | G8 | F8 | A8 | G8 | F8 | E8 | D8 |][M:2/2] D8 | %200
 F8 | E8 | D8 | G8 | F8 | A8 | G8 | F8 | E8 | D8 |][M:2/2] E8 | C8 | D8 | C8 | A,8 | A8 | G8 | E8 | %218
 F8 | E8 |][M:2/2][K:alto1] ^G2 B2 E2 G2 | A2 c2 A2 G2 | F2 D2 E2 F2 | G2 F2 E2 D2 | C2 c2 A2 G2 | %225
 F2 G2 A2 B2 | c2 B2 e2 B2 | c2 A2 B2 c2 | A2 d2 A2 B2 | ^G8 |][M:2/2][K:alto] E8 | C8 | D8 | C8 | %234
 A,8 | A8 | G8 | E8 | F8 | E8 |][M:2/2][K:alto1] ^G8 | A8 | A8 | c8 | c8 | c8 | c8 | c8 | d8 | %249
 B8 |][M:2/2][K:alto] D8 | F8 | E8 | D8 | G8 | F8 | A8 | G8 | F8 | E8 | D8 |][M:2/2] F8 | D8 | E8 | %264
 F8 | _B8 | A8 | E4 C4 | G8 | C4 D4 | E8 | A,8 |][M:2/2][K:tenor] z4 A,4- | A,4 D4- | D4 C4- | %275
 C4 B,4- | B,4 D4- | D4 A,4- | A,4 F4- | F4 E4- | E4 D4- | D4 ^C4 | D8 |][M:2/2][K:alto] D8 | F8 | %285
 E8 | D8 | G8 | F8 | A8 | G8 | F8 | E8 | D8 |][M:2/2] D8 | F8 | E8 | D8 | G8 | F8 | A8 | G8 | F8 | %303
 E8 | D8 |][M:2/2][K:tenor] z4 A,4- | A,2 F,2 A,2 B,2 | C2 G,2 C4- | C4 B,4- | B,2 G,2 B,2 ^C2 | %310
 D2 D,2 D4- | D2 C2 F4- | F4 E4- | E2 A,2 D4- | D4 ^C4 | D8 |][M:2/2][K:alto] F8 | A8 | G8 | F8 | %320
 G8 | C8 | C8 | G8 | C4 D4 | E8 | A,8 |][M:2/2] D8 | F8 | E8 | D8 | G8 | F8 | A8 | G8 | F8 | E8 | %337
 D8 |][M:2/2] D2 E2 F2 G2 | A2 G2 F2 A2 | G2 F2 E2 G2 | F2 D2 F2 E2 | D2 C2 _B,2 D2 | F2 G2 A2 F2 | %344
 E2 D2 C2 A,2 | D2 C2 _B,2 G,2 | C2 B,2 A,2 D2 | E2 E,2 F,2 G,2 | A,8 |] %349
V:3
 A,8 | F,8 | G,8 | G,8 | G,8 | A,8 | A,8 | C8 | A,8 | A,8 | A,8 |][M:2/2] F,8 | F,8 | G,8 | G,8 | %15
 G,8 | A,8 | A,8 | C8 | A,8 | A,8 | A,8 |][M:2/2] D,8 | F,8 | E,8 | D,8 | G,8 | F,8 | A,8 | G,8 | %30
 F,8 | E,8 | D,8 |][M:2/2] D8 | D8 | G,8 | A,8 | _B,8 | C8 | C8 | D8 | D,8 | G,8 | A,8 |] %44
[M:2/2] ^G,8 | A,8 | F,8 | E,8 | E,8 | F,8 | C8 | C8 | A,8 | ^G,8 |][M:2/2] B,8 | A,8 | A,8 | A,8 | %58
 C8 | C8 | E8 | C8 | D8 | B,8 |][M:2/2][K:alto] E8 | C8 | D8 | C8 | A,8 | A8 | G8 | E8 | F8 | E8 |] %74
[M:2/2] C8 | C8 | C8 | D8 | F8 | G8 | F8 | E8 | D8 | A,8 | C8 | A,8 |][M:2/2][K:tenor] A,8 | G,8 | %88
 F,8 | A,8 | F,8 | G,8 | F,8 | E,8 | F,8 | A,8 | C8 | A,8 |][M:2/2] F,8 | G,8 | A,8 | F,8 | D,8 | %103
 E,8 | F,8 | C8 | A,8 | F,8 | G,8 | F,8 |][M:2/2][K:alto] F8 | D8 | C8 | C8 | D8 | C8 | C8 | E8 | %118
 C8 | D8 | _B,8 | C8 |][M:2/2][K:tenor] z4 F,4 | A,4 B,4 | C4 G,4 | B,4 A,4 | G,4 E,4 | A,4 F,4 | %128
 E,4 F,4 | E,4 C4 | A,4 F,4 | A,8 | A,8 |][M:2/2] A,8 | F,8 | G,8 | G,8 | G,8 | A,8 | C8 | C8 | %141
 F,8 | A,8 | A,8 |][M:2/2][K:alto] D8 | F8 | E8 | D8 | G8 | F8 | A8 | G8 | F8 | E8 | D8 |] %155
[M:2/2][K:tenor] A,8 | A,8 | G,8 | A,8 | _B,8 | C8 | C8 | D8 | A,8 | E8 | A,8 |][M:2/2] A,8 | F,8 | %168
 G,8 | B,8 | G,8 | A,8 | A,8 | C8 | F,8 | A,8 | A,8 |][M:2/2] A,8 | A,8 | C8 | F,8 | _B,8 | C8 | %183
 C8 | D8 | A,8 | G,8 | A,8 |][M:2/2] D,2 E,2 F,2 G,2 | A,2 F,2 A,2 B,2 | C2 E2 D2 C2 | %191
 B,2 G,2 B,2 D2 | E2 E,2 F,2 G,2 | A,2 D2 C2 _B,2 | A,2 F,2 A,2 B,2 | C2 G,2 C2 _B,2 | %196
 A,2 D,2 F,2 G,2 | A,8 | A,8 |][M:2/2] F,8 | F,8 | G,8 | B,8 | E8 | A,8 | A,8 | E,8 | A,8 | A,8 | %209
 A,8 |][M:2/2] ^G,8 | A,8 | A,8 | G,8 | C8 | A,8 | B,8 | C8 | D8 | B,8 |][M:2/2][K:alto] B,8 | %221
 A,8 | A,8 | G,8 | A,8 | C8 | E8 | C8 | D8 | B,8 |][M:2/2][K:tenor] ^G,2 B,2 E,2 G,2 | %231
 A,2 C2 A,2 G,2 | F,2 A,2 G,2 F,2 | G,2 E,2 E2 D2 | C2 B,2 A,2 G,2 | F,2 G,2 A,2 B,2 | %236
 C2 D2 E2 D2 | C2 A,2 C2 B,2 | A,2 D,2 D2 C2 | B,8 |][M:2/2][K:alto] E8 | C8 | D8 | C8 | A,8 | A8 | %246
 G8 | E8 | F8 | E8 |][M:2/2][K:tenor] A,8 | A,8 | A,8 | D,8 | D8 | D8 | C8 | C8 | A,8 | A,8 | %260
 A,8 |][M:2/2] z4 A,4- | A,4 D4- | D4 C4- | C4 _B,4- | B,4 D4- | D4 C4- | C4 F4- | F4 E4- | %269
 E4 D4- | D4 ^C4 | D8 |][M:2/2] F,8 | A,8 | A,8 | D,8 | D8 | D8 | C8 | C8 | A,8 | A,8 | A,8 |] %283
[M:2/2] D,8 | D,8 | E,8 | A,8 | G,8 | A,8 | F,8 | C,8 | F,8 | A,8 | ^F,8 |][M:2/2] A,8 | F,8 | %296
 G,8 | G,8 | G,8 | A,8 | A,8 | C8 | A,8 | A,8 | A,8 |][M:2/2] A,8 | F,8 | G,8 | G,8 | G,8 | A,8 | %311
 A,8 | C8 | A,8 | A,8 | A,8 |][M:2/2] z4 A,4- | A,4 D4- | D4 ^C4 | D2 E2 F4- | F4 E4 | F4 F,4- | %322
 F,4 F4- | F2 ED E4- | E4 D4- | D4 ^C4 | D8 |][M:2/2] D,8 | D8 | C8 | B,8 | G,8 | A,8 | F8 | E8 | %335
 ^C4 D4 | A,8 | A,8 |][M:2/2] z4 A,4- | A,4 D4- | D4 C4- | C4 _B,4- | B,4 D4- | D4 C4- | C4 F4- | %345
 F4 E4- | E4 D4- | D4 ^C4 | D8 |] %349
V:4
 D,8 | D,8 | C,8 | G,8 | E,8 | D,8 | F,8 | C,8 | D,8 | A,,8 | D,8 |][M:2/2] D,8 | D,8 | C,8 | G,8 | %15
 E,8 | D,8 | F,8 | C,8 | D,8 | A,,8 | D,8 |][M:2/2] D,8 | D,8 | A,,8 | _B,,8 | G,,8 | D,8 | A,,8 | %29
 C,8 | D,8 | A,,8 | D,8 |][M:2/2] D,8 | F,8 | E,8 | D,8 | G,8 | F,8 | A,8 | G,8 | F,8 | E,8 | %43
 D,8 |][M:2/2] E,8 | F,8 | D,8 | A,,8 | A,,8 | F,,8 | E,,8 | A,,8 | D,8 | E,8 |][M:2/2] E,8 | F,8 | %56
 D,8 | A,,8 | A,,8 | F,8 | E,8 | A,8 | D,8 | E,8 |][M:2/2][K:tenor] E,8 | F,8 | D,8 | E,8 | F,8 | %69
 F,8 | E,8 | A,8 | D,8 | E,8 |][M:2/2][K:bass] F,8 | E,8 | F,8 | D,8 | _B,,8 | G,,8 | D,8 | A,,8 | %82
 D,8 | D,8 | C,8 | F,,8 |][M:2/2] F,8 | E,8 | F,8 | F,,8 | _B,,8 | G,,8 | D,8 | A,,8 | D,8 | D,8 | %96
 C,8 | F,,8 |][M:2/2] F,8 | E,8 | F,8 | D,8 | _B,,8 | G,,8 | D,8 | A,,8 | D,8 | D,8 | C,8 | F,,8 |] %110
[M:2/2][K:tenor] F,8 | G,8 | A,8 | F,8 | D,8 | E,8 | F,8 | C8 | A,8 | F,8 | G,8 | F,8 |] %122
[M:2/2][K:bass] D,8 | D,8 | C,8 | G,8 | E,8 | D,8 | A,,8 | C,8 | D,8 | A,,8 | D,8 |][M:2/2] D,8 | %134
 D,8 | C,8 | G,8 | E,8 | D,8 | A,,8 | C,8 | D,8 | A,,8 | D,8 |][M:2/2][K:tenor] z4 D4 | D,4 F,4 | %146
 A,4 C4 | G,4 F,4 | E,4 G,4 | D,4 E,4 | F,4 A,4 | C4 C,4 | D,4 F,4 | A,4 A,,4 | D,8 |] %155
[M:2/2][K:bass] D,8 | F,8 | E,8 | D,8 | G,8 | F,8 | A,8 | G,8 | F,8 | E,8 | D,8 |][M:2/2] D,8 | %167
 D,8 | C,8 | G,8 | E,8 | D,8 | F,8 | C,8 | D,8 | A,,8 | D,8 |][M:2/2] D,8 | F,8 | E,8 | D,8 | G,8 | %182
 F,8 | A,8 | G,8 | F,8 | E,8 | D,8 |][M:2/2] D,8 | D,8 | C,8 | G,8 | E,8 | D,8 | A,8 | C,8 | D,8 | %197
 A,,8 | D,8 |][M:2/2] D,2 E,2 F,2 E,2 | D,2 F,2 E,2 D,2 | C,2 D,2 E,2 F,2 | G,2 G,,2 G,2 F,2 | %203
 E,2 G,2 F,2 E,2 | D,2 F,2 D,2 E,2 | F,2 G,2 A,2 F,2 | C2 C,2 E,2 C,2 | D,2 E,2 F,2 G,2 | %208
 A,2 G,2 A,2 A,,2 | D,8 |][M:2/2] E,8 | F,8 | D,8 | E,8 | F,8 | F,8 | E,8 | A,8 | D,8 | E,8 |] %220
[M:2/2][K:tenor] E,8 | F,8 | D,8 | E,8 | F,8 | F,8 | E,8 | A,8 | D,8 | E,8 |][M:2/2][K:bass] E,8 | %231
 F,8 | D,8 | E,8 | F,8 | F,8 | C,8 | C,8 | D,8 | E,8 |][M:2/2][K:tenor] E2 D2 C2 B,2 | %241
 A,2 G,2 F,2 E,2 | D,2 E,2 F,2 D,2 | A,2 C2 A,2 G,2 | F,2 G,2 A,2 G,2 | F,2 G,2 A,2 B,2 | %246
 C2 E,2 F,2 G,2 | A,2 G,2 F,2 E,2 | D,2 F,2 E,2 D,2 | E,8 |][M:2/2][K:bass] D,8 | D,8 | A,,8 | %253
 B,,8 | G,,8 | D,8 | F,8 | C,8 | D,8 | A,,8 | D,8 |][M:2/2] D,8 | F,8 | E,8 | D,8 | G,8 | F,8 | %267
 A,8 | G,8 | F,8 | E,8 | D,8 |][M:2/2] D,8 | D,8 | A,,8 | B,,8 | G,,8 | D,8 | F,8 | C,8 | D,8 | %281
 A,,8 | D,8 |][M:2/2] z4 D,4- | D,4 A,4- | A,4 G,4- | G,4 F,4- | F,4 E,4- | E,4 D,4- | D,4 F,4- | %290
 F,4 E,4- | E,4 D,4- | D,4 ^C,4 | D,8 |][M:2/2] D,8 | D,8 | C,8 | G,8 | E,8 | D,8 | F,8 | C,8 | %302
 D,8 | A,,8 | D,8 |][M:2/2] D,8 | D,8 | C,8 | G,8 | E,8 | D,8 | F,8 | C,8 | D,8 | A,,8 | D,8 |] %316
[M:2/2] D,8 | F,8 | E,8 | D,8 | G,8 | F,8 | A,8 | G,8 | F,8 | E,8 | D,8 |][M:2/2] z4 D,4- | %328
 D,2 E,2 F,2 G,2 | A,2 A,,2 A,4- | A,4 G,4- | G,2 F,2 E,4 | D,2 E,2 F,4- | F,2 G,2 A,2 B,2 | %334
 C2 C,2 E,4- | E,4 D,4- | D,4 ^C,4 | D,8 |][M:2/2] D,8 | F,8 | E,8 | D,8 | G,8 | F,8 | A,8 | G,8 | %346
 F,8 | E,8 | D,8 |] %349

